X: 194
T: Ku Lingding
%%abc-version 2.0
%%abcx-abcm2ps-target-version 5.9.1 (29 Sep 2008)
%%abc-creator hum2abc beta
%%abcx-conversion-date 2013/10/02 07:52:29
%%abc-edited-by Helmut Schaffrath
%%humdrum-veritas 3261689552
%%humdrum-veritas-data 3237727334
%%continueall 1
%%barnumbers 0
L: 1/8
M: 2/4
K: G
d> e d A/ B/ [I:setbarnb 1]| 
G2F E | 
A> B A E/ F/ | 
D4 | 
d> e d c | 
B A/ B/ A D | 
A> B A E/ F/ | 
D4 | 
F BA2 | 
d> e d c | 
B A/ B/ A D | 
F B A G | 
F E D E/ G/ | 
D4 |]  



